X:02
T:Lady Mary Douglas. ET.02
M:6/8
L:1/8
Q:1/4=110
S:Eliza Tennyson MS, Lincolnshire,1822
R:jig
O:England;Lincolnshire;Somersby
N:The three occurrences of this half bar are all notated as D/E/F/F in the MS
Z:vmp.R.Greig 2011 <http://www.village-music-project.org.uk>
K:Bb
E|”_NB”D/E/FF F2B|GEGF2E|D/E/FF FBd|d3c2F|!
D/E/FF F2B|GEGF2f|fdB ecA|B3″bar line added”B,2||!
f|fgf b2″cr.in ms”f|d3″qu.in ms”B2 d|cdcf2c|A3FGA|!
B3GAB|c3ABc|def fed| cBA GFE|]

